X: 4
T: Cock O' The North
R: jig
M: 6/8
L: 1/8
K: Dmaj
R: slide
M: 12/8
|: d2 A B2 A d2 A B2 A | F2 F FED E2 E EFA |
d2 A B2 A d2 A B2 A | F2 F EFE DFE D3 :|
|: F2 F FED F2 A B2 A | F2 F FED E2 E EDE |
F2 F FED F2 A B2 A | F2 F EFE DFE D3 :|


Tune 1218	Setting 28387

